communes/5886.svg

<?xml version="1.0" encoding="UTF-8"?>
<svg version="1.0" viewBox="0 0 603 763" xmlns="http://www.w3.org/2000/svg" xmlns:cc="http://creativecommons.org/ns#" xmlns:dc="http://purl.org/dc/elements/1.1/" xmlns:rdf="http://www.w3.org/1999/02/22-rdf-syntax-ns#" xmlns:xlink="http://www.w3.org/1999/xlink">
<metadata>
<rdf:RDF>
<cc:Work rdf:about="">
<dc:format>image/svg+xml</dc:format>
<dc:type rdf:resource="http://purl.org/dc/dcmitype/StillImage"/>
<dc:date>07-AUG-2006</dc:date>
<dc:creator>
<cc:Agent>
<dc:title>Jérôme BLUM (wagner51)</dc:title>
</cc:Agent>
</dc:creator>
<cc:license rdf:resource="http://creativecommons.org/licenses/GPL/2.0/"/>
<dc:coverage/>
<dc:description>Gabarit pour le Projet:Blasons de WIkipédia</dc:description>
<dc:subject>
<rdf:Bag>
<rdf:li>blason suisse modèle gabarit projet blasons</rdf:li>
</rdf:Bag>
</dc:subject>
<dc:language>fr</dc:language>
<dc:title>Gabrit d'un blason suisse</dc:title>
</cc:Work>
<cc:License rdf:about="http://creativecommons.org/licenses/GPL/2.0/">
<cc:permits rdf:resource="http://web.resource.org/cc/Reproduction"/>
<cc:permits rdf:resource="http://web.resource.org/cc/Distribution"/>
<cc:requires rdf:resource="http://web.resource.org/cc/Notice"/>
<cc:permits rdf:resource="http://web.resource.org/cc/DerivativeWorks"/>
<cc:requires rdf:resource="http://web.resource.org/cc/ShareAlike"/>
<cc:requires rdf:resource="http://web.resource.org/cc/SourceCode"/>
</cc:License>
</rdf:RDF>
</metadata>
<defs>
<radialGradient id="a" cx="858.04" cy="579.93" r="300" gradientTransform="matrix(1.215 1.5316e-24 1.4647e-23 1.2667 -839.19 -490.49)" gradientUnits="userSpaceOnUse">
<stop stop-color="#fff" stop-opacity=".31373" offset="0"/>
<stop stop-color="#fff" stop-opacity=".25098" offset=".19"/>
<stop stop-color="#6b6b6b" stop-opacity=".12549" offset=".6"/>
<stop stop-opacity=".12549" offset="1"/>
</radialGradient>
</defs>
<desc>Coat of Arms of Canton of Freiburg (Fribourg)</desc>
<g>
<path d="m1.5 1.5v458.87c0 166.31 134.31 301.13 300 301.13s300-134.82 300-301.13v-458.87h-600z" fill="#2b5df2"/>
<path d="m1.5 1.5v458.87c0 166.31 134.31 301.13 300 301.13v-760h-300z" fill="#fff"/>
<polygon transform="translate(-.038 -.045)" points="87.126 567.66 128.68 554.47 119.33 511.88 151.54 541.27 183.74 511.88 174.39 554.47 215.95 567.66 174.39 580.86 183.74 623.44 151.54 594.05 119.33 623.44 128.68 580.86" fill="#e20909" stroke="#000" stroke-miterlimit="9" stroke-width="3"/>
<path d="m198.89 380.7c4.503 7.709 7.088 16.617 7.088 26.117 0 29.254-24.39 52.969-54.477 52.969s-54.477-23.715-54.477-52.969c0-9.5 2.585-18.408 7.089-26.117-13.274 12.82-21.569 30.951-21.569 51.07 0 38.846 30.873 70.336 68.957 70.336s68.957-31.49 68.957-70.336c1e-3 -20.119-8.294-38.25-21.568-51.07z" fill="#e20909" stroke="#000" stroke-miterlimit="9" stroke-width="3"/>
<polygon transform="translate(-.038 -.045)" points="87.126 352.48 128.68 339.29 119.33 296.7 151.54 326.09 183.74 296.7 174.39 339.29 215.95 352.48 174.39 365.67 183.74 408.26 151.54 378.87 119.33 408.26 128.68 365.67" fill="#e20909" stroke="#000" stroke-miterlimit="9" stroke-width="3"/>
<path d="m198.89 165.52c4.503 7.709 7.088 16.617 7.088 26.116 0 29.254-24.39 52.969-54.477 52.969s-54.477-23.715-54.477-52.969c0-9.5 2.585-18.407 7.089-26.116-13.274 12.819-21.569 30.951-21.569 51.069 0 38.846 30.873 70.336 68.957 70.336s68.957-31.491 68.957-70.336c1e-3 -20.118-8.294-38.25-21.568-51.069z" fill="#e20909" stroke="#000" stroke-miterlimit="9" stroke-width="3"/>
<polygon transform="translate(-.038 -.045)" points="87.126 137.3 128.68 124.1 119.33 81.517 151.54 110.91 183.74 81.516 174.39 124.1 215.95 137.3 174.39 150.49 183.74 193.08 151.54 163.69 119.33 193.08 128.68 150.49" fill="#e20909" stroke="#000" stroke-miterlimit="9" stroke-width="3"/>
<line x1="301.5" x2="301.5" y1="1.5" y2="761.5" fill="none" stroke="#000" stroke-width="3"/>
<polygon transform="translate(-.038 -.045)" points="451.54 409.27 356.48 466.46 356.48 575.32 546.6 575.32 546.6 466.46" fill="#fcef3c" stroke="#000" stroke-miterlimit="20" stroke-width="3"/>
<rect x="418.32" y="353.48" width="66.362" height="224.12" fill="#fcef3c" stroke="#000" stroke-miterlimit="20" stroke-width="3"/>
<polygon transform="translate(-.038 -.045)" points="451.54 121.12 418.36 353.53 484.72 353.53" fill="#fcef3c" stroke="#000" stroke-miterlimit="20" stroke-width="3"/>
<path d="m451.5 385.97c-5.1 0-9.234 4.135-9.234 9.234v32.405h18.471v-32.405c-2e-3 -5.099-4.135-9.234-9.237-9.234z"/>
<path d="m451.5 514.58c-6.48 0-17.153 13.151-17.153 22.626v40.396h34.309v-40.396c-2e-3 -9.474-10.674-22.626-17.156-22.626z"/>
<line x1="444.24" x2="444.24" y1="279.17" y2="239.97" fill="none" stroke="#000" stroke-width="3"/>
<line x1="438.81" x2="438.81" y1="332.72" y2="299.35" fill="none" stroke="#000" stroke-width="3"/>
<line x1="458.76" x2="458.76" y1="279.17" y2="239.97" fill="none" stroke="#000" stroke-width="3"/>
<line x1="451.5" x2="451.5" y1="219.01" y2="179.82" fill="none" stroke="#000" stroke-width="3"/>
<line x1="464.19" x2="464.19" y1="332.72" y2="299.35" fill="none" stroke="#000" stroke-width="3"/>
<line x1="356.44" x2="418.18" y1="558.68" y2="558.68" fill="none" stroke="#000" stroke-width="3"/>
<line x1="356.44" x2="418.32" y1="536.38" y2="536.38" fill="none" stroke="#000" stroke-width="3"/>
<line x1="356.44" x2="418.32" y1="514.08" y2="514.08" fill="none" stroke="#000" stroke-width="3"/>
<line x1="356.44" x2="418.32" y1="491.78" y2="491.78" fill="none" stroke="#000" stroke-width="3"/>
<line x1="356.44" x2="418.32" y1="469.47" y2="469.47" fill="none" stroke="#000" stroke-width="3"/>
<line x1="388.43" x2="418.32" y1="447.17" y2="447.17" fill="none" stroke="#000" stroke-width="3"/>
<line x1="371.91" x2="371.91" y1="536.38" y2="558.68" fill="none" stroke="#000" stroke-width="3"/>
<line x1="402.85" x2="402.85" y1="536.38" y2="558.68" fill="none" stroke="#000" stroke-width="3"/>
<line x1="387.38" x2="387.38" y1="514.08" y2="536.38" fill="none" stroke="#000" stroke-width="3"/>
<line x1="371.91" x2="371.91" y1="491.78" y2="514.08" fill="none" stroke="#000" stroke-width="3"/>
<line x1="402.85" x2="402.85" y1="491.78" y2="514.08" fill="none" stroke="#000" stroke-width="3"/>
<line x1="371.91" x2="371.91" y1="456.96" y2="469.47" fill="none" stroke="#000" stroke-width="3"/>
<line x1="402.85" x2="402.85" y1="447.17" y2="469.47" fill="none" stroke="#000" stroke-width="3"/>
<line x1="387.38" x2="387.38" y1="469.47" y2="491.78" fill="none" stroke="#000" stroke-width="3"/>
<line x1="546.56" x2="484.83" y1="558.68" y2="558.68" fill="none" stroke="#000" stroke-width="3"/>
<line x1="546.56" x2="484.68" y1="536.38" y2="536.38" fill="none" stroke="#000" stroke-width="3"/>
<line x1="546.56" x2="484.68" y1="514.08" y2="514.08" fill="none" stroke="#000" stroke-width="3"/>
<line x1="546.56" x2="484.68" y1="491.78" y2="491.78" fill="none" stroke="#000" stroke-width="3"/>
<line x1="546.56" x2="484.68" y1="469.47" y2="469.47" fill="none" stroke="#000" stroke-width="3"/>
<line x1="514.57" x2="484.68" y1="447.17" y2="447.17" fill="none" stroke="#000" stroke-width="3"/>
<line x1="531.09" x2="531.09" y1="536.38" y2="558.68" fill="none" stroke="#000" stroke-width="3"/>
<line x1="500.15" x2="500.15" y1="536.38" y2="558.68" fill="none" stroke="#000" stroke-width="3"/>
<line x1="515.62" x2="515.62" y1="514.08" y2="536.38" fill="none" stroke="#000" stroke-width="3"/>
<line x1="531.09" x2="531.09" y1="491.78" y2="514.08" fill="none" stroke="#000" stroke-width="3"/>
<line x1="500.15" x2="500.15" y1="491.78" y2="514.08" fill="none" stroke="#000" stroke-width="3"/>
<line x1="531.09" x2="531.09" y1="456.96" y2="469.47" fill="none" stroke="#000" stroke-width="3"/>
<line x1="500.15" x2="500.15" y1="447.17" y2="469.47" fill="none" stroke="#000" stroke-width="3"/>
<line x1="515.62" x2="515.62" y1="469.47" y2="491.78" fill="none" stroke="#000" stroke-width="3"/>
</g>
<g>
<path d="m1.5 1.5v458.87c0 166.31 134.31 301.13 300 301.13 165.69 0 300-134.82 300-301.13v-458.87h-600z" fill="url(#a)"/>
<path d="m1.5 1.5v458.87c0 166.31 134.31 301.13 300 301.13 165.69 0 300-134.82 300-301.13v-458.87h-600z" fill="none" stroke="#000" stroke-width="3"/>
</g>
</svg>

<?xml version="1.0" encoding="UTF-8" standalone="no"?>
<svg
   xmlns:dc="http://purl.org/dc/elements/1.1/"
   xmlns:cc="http://creativecommons.org/ns#"
   xmlns:rdf="http://www.w3.org/1999/02/22-rdf-syntax-ns#"
   xmlns:svg="http://www.w3.org/2000/svg"
   xmlns="http://www.w3.org/2000/svg"
   xmlns:xlink="http://www.w3.org/1999/xlink"
   xmlns:sodipodi="http://sodipodi.sourceforge.net/DTD/sodipodi-0.dtd"
   xmlns:inkscape="http://www.inkscape.org/namespaces/inkscape"
   height="763"
   width="603"
   version="1.0"
   id="svg20"
   sodipodi:version="0.32"
   inkscape:version="0.46"
   sodipodi:docname="Montreux-coat_of_arms.svg"
   sodipodi:docbase="C:\Documents and Settings\Steve\Bureau\Blason Villages Suisse pour Wikipédia (par Delta-9)"
   inkscape:output_extension="org.inkscape.output.svg.inkscape">
  <metadata
     id="metadata31">
    <rdf:RDF>
      <cc:Work
         rdf:about="">
        <dc:format>image/svg+xml</dc:format>
        <dc:type
           rdf:resource="http://purl.org/dc/dcmitype/StillImage" />
        <dc:date>07-AUG-2006</dc:date>
        <dc:creator>
          <cc:Agent>
            <dc:title>Jérôme BLUM (wagner51)</dc:title>
          </cc:Agent>
        </dc:creator>
        <cc:license
           rdf:resource="http://creativecommons.org/licenses/GPL/2.0/" />
        <dc:coverage />
        <dc:description>Gabarit pour le Projet:Blasons de WIkipédia</dc:description>
        <dc:subject>
          <rdf:Bag>
            <rdf:li>blason suisse modèle gabarit projet blasons</rdf:li>
          </rdf:Bag>
        </dc:subject>
        <dc:language>fr</dc:language>
        <dc:title>Gabrit d'un blason suisse</dc:title>
      </cc:Work>
      <cc:License
         rdf:about="http://creativecommons.org/licenses/GPL/2.0/">
        <cc:permits
           rdf:resource="http://web.resource.org/cc/Reproduction" />
        <cc:permits
           rdf:resource="http://web.resource.org/cc/Distribution" />
        <cc:requires
           rdf:resource="http://web.resource.org/cc/Notice" />
        <cc:permits
           rdf:resource="http://web.resource.org/cc/DerivativeWorks" />
        <cc:requires
           rdf:resource="http://web.resource.org/cc/ShareAlike" />
        <cc:requires
           rdf:resource="http://web.resource.org/cc/SourceCode" />
      </cc:License>
    </rdf:RDF>
  </metadata>
  <defs
     id="defs29"><inkscape:perspective
   sodipodi:type="inkscape:persp3d"
   inkscape:vp_x="0 : 381.5 : 1"
   inkscape:vp_y="0 : 1000 : 0"
   inkscape:vp_z="603 : 381.5 : 1"
   inkscape:persp3d-origin="301.5 : 254.33333 : 1"
   id="perspective28" />
<linearGradient
   id="linearGradient2893">
  <stop
     style="stop-color:#ffffff;stop-opacity:0.3137255;"
     offset="0"
     id="stop2895" />
  <stop
     id="stop2897"
     offset="0.19"
     style="stop-color:#ffffff;stop-opacity:0.25098041;" />
  <stop
     style="stop-color:#6b6b6b;stop-opacity:0.1254902;"
     offset="0.60000002"
     id="stop2901" />
  <stop
     style="stop-color:#000000;stop-opacity:0.1254902;"
     offset="1"
     id="stop2899" />
</linearGradient>
<linearGradient
   id="linearGradient2955">
  <stop
     style="stop-color:white;stop-opacity:0;"
     offset="0"
     id="stop2965" />
  <stop
     style="stop-color:black;stop-opacity:0.64583331;"
     offset="1"
     id="stop2959" />
</linearGradient>
<radialGradient
   inkscape:collect="always"
   xlink:href="#linearGradient2893"
   id="radialGradient3236"
   gradientUnits="userSpaceOnUse"
   gradientTransform="matrix(1.215027,1.531577e-24,1.464684e-23,1.266667,-839.1924,-490.4894)"
   cx="858.04236"
   cy="579.93323"
   fx="858.04236"
   fy="579.93323"
   r="300" />
<inkscape:perspective
   id="perspective2593"
   inkscape:persp3d-origin="297.63751 : 280.63 : 1"
   inkscape:vp_z="595.27502 : 420.94501 : 1"
   inkscape:vp_y="0 : 1000 : 0"
   inkscape:vp_x="0 : 420.94501 : 1"
   sodipodi:type="inkscape:persp3d" />

	
	
	

	
	

		
		
			
		
		
		
		
		
		
		
		
		
		
		
		
		
		
		
		
		
		
		
		
		
		
		
		
		
		
		
		
		
		
		
		
		
		
		
		
	
		
		
		
		
		
	</defs>
  <sodipodi:namedview
     inkscape:window-height="842"
     inkscape:window-width="1142"
     inkscape:pageshadow="2"
     inkscape:pageopacity="0.0"
     guidetolerance="10.0"
     gridtolerance="10.0"
     objecttolerance="10.0"
     borderopacity="1.0"
     bordercolor="#666666"
     pagecolor="#ffffff"
     id="base"
     inkscape:zoom="0.55032373"
     inkscape:cx="255.04248"
     inkscape:cy="362.94507"
     inkscape:window-x="20"
     inkscape:window-y="42"
     inkscape:current-layer="layer1"
     showgrid="false"
     showguides="true"
     inkscape:guide-bbox="true">
    <sodipodi:guide
       orientation="horizontal"
       position="761.5"
       id="guide1885" />
    <sodipodi:guide
       orientation="vertical"
       position="1.5"
       id="guide1887" />
    <sodipodi:guide
       orientation="horizontal"
       position="1.5"
       id="guide1889" />
    <sodipodi:guide
       orientation="vertical"
       position="601.5"
       id="guide1891" />
    <sodipodi:guide
       orientation="vertical"
       position="301.50081"
       id="guide1893" />
  </sodipodi:namedview>
  <desc
     id="desc22">Coat of Arms of Canton of Freiburg (Fribourg)</desc>
  <g
     inkscape:groupmode="layer"
     id="layer1"
     inkscape:label="Fond écu"
     style="opacity:1;display:inline"
     sodipodi:insensitive="true">
    <path
       d="M 1.5,1.5 L 1.5,460.369 C 1.5,626.68 135.814,761.5 301.5,761.5 C 467.186,761.5 601.5,626.68 601.5,460.369 L 601.5,1.5 L 1.5,1.5 z"
       id="path2600"
       style="opacity:1;fill:#2b5df2" />
    <path
       id="path2537"
       d="M 1.5,1.5 L 1.5,460.369 C 1.5,626.68 135.814,761.5 301.5,761.5 L 301.5,1.5 L 1.5,1.5 L 1.5,1.5 z"
       style="opacity:1;fill:#ffffff" />
  </g>
  <g
     inkscape:groupmode="layer"
     id="layer2"
     inkscape:label="Meubles"
     style="opacity:1;display:inline"
     sodipodi:insensitive="true">
    <polygon
       style="fill:#e20909;stroke:#000000;stroke-width:3;stroke-miterlimit:9"
       id="polygon2600"
       stroke-miterlimit="9"
       points="87.126,567.664 128.685,554.468 119.333,511.882 151.538,541.273 183.744,511.88 174.391,554.468 215.95,567.664 174.391,580.857 183.743,623.445 151.538,594.05 119.333,623.445 128.685,580.857 87.126,567.664 "
       transform="translate(-3.8e-2,-4.49999e-2)" />
    <path
       style="fill:#e20909;stroke:#000000;stroke-width:3;stroke-miterlimit:9"
       id="path2602"
       stroke-miterlimit="9"
       d="M 198.888,380.705 C 203.391,388.414 205.976,397.322 205.976,406.822 C 205.976,436.076 181.586,459.791 151.499,459.791 C 121.412,459.791 97.022,436.076 97.022,406.822 C 97.022,397.322 99.607,388.414 104.111,380.705 C 90.837,393.525 82.542,411.656 82.542,431.775 C 82.542,470.621 113.415,502.111 151.499,502.111 C 189.583,502.111 220.456,470.621 220.456,431.775 C 220.457,411.656 212.162,393.525 198.888,380.705 z" />
    <polygon
       style="fill:#e20909;stroke:#000000;stroke-width:3;stroke-miterlimit:9"
       id="polygon2604"
       stroke-miterlimit="9"
       points="87.126,352.48 128.685,339.286 119.333,296.699 151.538,326.092 183.744,296.699 174.391,339.286 215.95,352.48 174.391,365.673 183.743,408.261 151.538,378.869 119.333,408.261 128.685,365.673 87.126,352.48 "
       transform="translate(-3.8e-2,-4.49999e-2)" />
    <path
       style="fill:#e20909;stroke:#000000;stroke-width:3;stroke-miterlimit:9"
       id="path2606"
       stroke-miterlimit="9"
       d="M 198.888,165.523 C 203.391,173.232 205.976,182.14 205.976,191.639 C 205.976,220.893 181.586,244.608 151.499,244.608 C 121.412,244.608 97.022,220.893 97.022,191.639 C 97.022,182.139 99.607,173.232 104.111,165.523 C 90.837,178.342 82.542,196.474 82.542,216.592 C 82.542,255.438 113.415,286.928 151.499,286.928 C 189.583,286.928 220.456,255.437 220.456,216.592 C 220.457,196.474 212.162,178.342 198.888,165.523 z" />
    <polygon
       style="fill:#e20909;stroke:#000000;stroke-width:3;stroke-miterlimit:9"
       id="polygon2608"
       stroke-miterlimit="9"
       points="87.126,137.297 128.685,124.104 119.333,81.517 151.538,110.91 183.744,81.516 174.391,124.104 215.95,137.297 174.391,150.492 183.743,193.079 151.538,163.686 119.333,193.079 128.685,150.492 87.126,137.297 "
       transform="translate(-3.8e-2,-4.49999e-2)" />
    <line
       y2="761.49896"
       x2="301.49899"
       y1="1.5000001"
       x1="301.49899"
       id="line2610"
       style="fill:none;stroke:#000000;stroke-width:3" />
    <polygon
       style="fill:#fcef3c;stroke:#000000;stroke-width:3;stroke-miterlimit:20"
       id="polygon2614"
       stroke-miterlimit="20"
       points="451.538,409.268 356.478,466.462 356.478,575.319 546.601,575.319 546.601,466.462 451.538,409.268 "
       transform="translate(-3.8e-2,-4.49999e-2)" />
    <rect
       style="fill:#fcef3c;stroke:#000000;stroke-width:3;stroke-miterlimit:20"
       id="rect2618"
       x="418.319"
       y="353.48499"
       stroke-miterlimit="20"
       width="66.362"
       height="224.119" />
    <polygon
       style="fill:#fcef3c;stroke:#000000;stroke-width:3;stroke-miterlimit:20"
       id="polygon2620"
       stroke-miterlimit="20"
       points="451.538,121.116 418.357,353.53 484.72,353.53 451.538,121.116 "
       transform="translate(-3.8e-2,-4.49999e-2)" />
    <path
       id="path2624"
       d="M 451.5,385.968 C 446.4,385.968 442.266,390.103 442.266,395.202 L 442.266,427.607 L 460.737,427.607 L 460.737,395.202 C 460.735,390.103 456.602,385.968 451.5,385.968 z" />
    <path
       id="path2626"
       d="M 451.5,514.581 C 445.02,514.581 434.347,527.732 434.347,537.207 L 434.347,577.603 L 468.656,577.603 L 468.656,537.207 C 468.654,527.733 457.982,514.581 451.5,514.581 z" />
    <line
       style="fill:none;stroke:#000000;stroke-width:3"
       id="line2630"
       x1="444.24301"
       y1="279.16599"
       x2="444.24301"
       y2="239.97" />
    <line
       style="fill:none;stroke:#000000;stroke-width:3"
       id="line2632"
       x1="438.811"
       y1="332.72299"
       x2="438.811"
       y2="299.34698" />
    <line
       style="fill:none;stroke:#000000;stroke-width:3"
       id="line2634"
       x1="458.758"
       y1="279.16599"
       x2="458.758"
       y2="239.97" />
    <line
       style="fill:none;stroke:#000000;stroke-width:3"
       id="line2636"
       x1="451.5"
       y1="219.013"
       x2="451.5"
       y2="179.817" />
    <line
       style="fill:none;stroke:#000000;stroke-width:3"
       id="line2638"
       x1="464.19101"
       y1="332.72299"
       x2="464.19101"
       y2="299.34698" />
    <line
       style="fill:none;stroke:#000000;stroke-width:3"
       id="line2644"
       x1="356.44"
       y1="558.68396"
       x2="418.17599"
       y2="558.68396" />
    <line
       style="fill:none;stroke:#000000;stroke-width:3"
       id="line2646"
       x1="356.44"
       y1="536.37994"
       x2="418.319"
       y2="536.37994" />
    <line
       style="fill:none;stroke:#000000;stroke-width:3"
       id="line2648"
       x1="356.44"
       y1="514.07996"
       x2="418.319"
       y2="514.07996" />
    <line
       style="fill:none;stroke:#000000;stroke-width:3"
       id="line2650"
       x1="356.44"
       y1="491.776"
       x2="418.319"
       y2="491.776" />
    <line
       style="fill:none;stroke:#000000;stroke-width:3"
       id="line2652"
       x1="356.44"
       y1="469.47198"
       x2="418.319"
       y2="469.47198" />
    <line
       style="fill:none;stroke:#000000;stroke-width:3"
       id="line2654"
       x1="388.42902"
       y1="447.17099"
       x2="418.319"
       y2="447.17099" />
    <line
       style="fill:none;stroke:#000000;stroke-width:3"
       id="line2656"
       x1="371.909"
       y1="536.37994"
       x2="371.909"
       y2="558.68396" />
    <line
       style="fill:none;stroke:#000000;stroke-width:3"
       id="line2658"
       x1="402.85101"
       y1="536.37994"
       x2="402.85101"
       y2="558.68396" />
    <line
       style="fill:none;stroke:#000000;stroke-width:3"
       id="line2660"
       x1="387.379"
       y1="514.07996"
       x2="387.379"
       y2="536.37994" />
    <line
       style="fill:none;stroke:#000000;stroke-width:3"
       id="line2662"
       x1="371.909"
       y1="491.776"
       x2="371.909"
       y2="514.07996" />
    <line
       style="fill:none;stroke:#000000;stroke-width:3"
       id="line2664"
       x1="402.85101"
       y1="491.776"
       x2="402.85101"
       y2="514.07996" />
    <line
       style="fill:none;stroke:#000000;stroke-width:3"
       id="line2666"
       x1="371.909"
       y1="456.96399"
       x2="371.909"
       y2="469.47198" />
    <line
       style="fill:none;stroke:#000000;stroke-width:3"
       id="line2668"
       x1="402.85101"
       y1="447.17099"
       x2="402.85101"
       y2="469.47198" />
    <line
       style="fill:none;stroke:#000000;stroke-width:3"
       id="line2670"
       x1="387.379"
       y1="469.47198"
       x2="387.379"
       y2="491.776" />
    <line
       style="fill:none;stroke:#000000;stroke-width:3"
       id="line2674"
       x1="546.56305"
       y1="558.68396"
       x2="484.82602"
       y2="558.68396" />
    <line
       style="fill:none;stroke:#000000;stroke-width:3"
       id="line2676"
       x1="546.56305"
       y1="536.37994"
       x2="484.68201"
       y2="536.37994" />
    <line
       style="fill:none;stroke:#000000;stroke-width:3"
       id="line2678"
       x1="546.56305"
       y1="514.07996"
       x2="484.68201"
       y2="514.07996" />
    <line
       style="fill:none;stroke:#000000;stroke-width:3"
       id="line2680"
       x1="546.56305"
       y1="491.776"
       x2="484.68201"
       y2="491.776" />
    <line
       style="fill:none;stroke:#000000;stroke-width:3"
       id="line2682"
       x1="546.56305"
       y1="469.47198"
       x2="484.68201"
       y2="469.47198" />
    <line
       style="fill:none;stroke:#000000;stroke-width:3"
       id="line2684"
       x1="514.57202"
       y1="447.17099"
       x2="484.68201"
       y2="447.17099" />
    <line
       style="fill:none;stroke:#000000;stroke-width:3"
       id="line2686"
       x1="531.09204"
       y1="536.37994"
       x2="531.09204"
       y2="558.68396" />
    <line
       style="fill:none;stroke:#000000;stroke-width:3"
       id="line2688"
       x1="500.14999"
       y1="536.37994"
       x2="500.14999"
       y2="558.68396" />
    <line
       style="fill:none;stroke:#000000;stroke-width:3"
       id="line2690"
       x1="515.62201"
       y1="514.07996"
       x2="515.62201"
       y2="536.37994" />
    <line
       style="fill:none;stroke:#000000;stroke-width:3"
       id="line2692"
       x1="531.09204"
       y1="491.776"
       x2="531.09204"
       y2="514.07996" />
    <line
       style="fill:none;stroke:#000000;stroke-width:3"
       id="line2694"
       x1="500.14999"
       y1="491.776"
       x2="500.14999"
       y2="514.07996" />
    <line
       style="fill:none;stroke:#000000;stroke-width:3"
       id="line2696"
       x1="531.09204"
       y1="456.96399"
       x2="531.09204"
       y2="469.47198" />
    <line
       style="fill:none;stroke:#000000;stroke-width:3"
       id="line2698"
       x1="500.14999"
       y1="447.17099"
       x2="500.14999"
       y2="469.47198" />
    <line
       style="fill:none;stroke:#000000;stroke-width:3"
       id="line2700"
       x1="515.62201"
       y1="469.47198"
       x2="515.62201"
       y2="491.776" />
  </g>
  <g
     inkscape:groupmode="layer"
     id="layer3"
     inkscape:label="Reflet final"
     style="display:inline"
     sodipodi:insensitive="true">
    <path
       style="fill:url(#radialGradient3236);fill-opacity:1"
       d="M 1.5,1.5 L 1.5,460.3679 C 1.5,626.67854 135.81454,761.5 301.49993,761.5 C 467.1854,761.5 601.5,626.67854 601.5,460.3679 L 601.5,1.5 L 1.5,1.5 z "
       id="path2346" />
  </g>
  <g
     inkscape:groupmode="layer"
     id="layer4"
     inkscape:label="Contour final"
     style="display:inline"
     sodipodi:insensitive="true">
    <path
       style="fill:none;fill-opacity:1;stroke:#000000;stroke-width:3;stroke-miterlimit:4;stroke-dasharray:none;stroke-opacity:1"
       d="M 1.5,1.5 L 1.5,460.36794 C 1.5,626.67854 135.81454,761.5 301.49993,761.5 C 467.1854,761.5 601.5,626.67854 601.5,460.36794 L 601.5,1.5 L 1.5,1.5 z "
       id="path3239" />
  </g>
</svg>
